X: 197
T: Bahârı Beklerken Ömrüm Kış Oldu
C: Sâmi Derintuna
O: Turkey
F: http://compmusic.upf.edu/node/140
N: ussak--sarki--duyek--bahari_beklerken--selcuk_tekay
N: makam= ussak
N: form= sarki
N: usul= duyek = 8/4
M: 8/4
L: 1/16
K: C _2/4B   
Q: 1/4=240
%%MIDI tuningsystem comma53
z2 e2 d2 e2 f2 d4 c2  | e2 c4 B2 c4 d4  | \
w:   |   | 
z2 d2 c2 d2 e2 c4 B2  | d2 B4 A2 B4 c4  | 
w:   |   | 
z2 c2 B2 c2 d2 B4 A2  | B2 A4 G2 A2 c2 B4  | \
w:   |   | 
z2 g2 ^f2 a2 g2 =f2 e2 d2  | 
w:   | 
c2 B2 B2 A2 A8  | z2 e2 d2 e2 f2 d4 c2  | \
w:   |   | 
e2 c4 B2 c4 d4  | z2 d2 c2 d2 e2 c4 B2  | 
w:   |   | 
d2 B4 A2 B4 c4  | z2 c2 B2 c2 d2 B4 A2  | \
w:   |   | 
B2 A4 G2 A2 c2 B4  | z2 g2 ^f2 a2 g2 =f2 e2 d2  | 
w:   |   | 
c2 B2 B2 A2 A8  | d2 d2 c2 B2 B2 A6  | \
w:   |  Ba hâ *  *  rı   | 
A4 A4 (3c2B2A2 B4  | c4 c2 B2 d2 c2 B2 A2  | 
w:  bek ler ken   |  öm rüm  *  kış_ ol  | 
A6 d2 c2 B2 A4  | c2 c4 d2 e4 z4  | z2 d4 d2 e8  | \
w:  du   SAZ  |  Gö züm *  de   |  her  za man   | 
e2 g4 z2 d2 c2 B2 A2  | 
w:  bi raz  yaş_ ol  | 
d8 c2 B2 A4  | d2 d2 c2 B2 B2 A6  | A4 A4 (3c2B2A2 B4  | \
w:  du   SAZ  |  Ba hâ *  *  rı   |  bek ler ken   | 
c4 c2 B2 d2 c2 B2 A2  | 
w:  öm rüm  *  kış_ ol  | 
A6 d2 c2 B2 A4  | c2 c4 d2 e4 z4  | z2 d4 d2 e8  | \
w:  du   SAZ  |  Gö züm *  de   |  her  za man   | 
e2 g4 z2 d2 c2 B2 A2  | 
w:  bi raz  yaş_ ol  | 
d8 G2 A2 B2 c2  | d2 f4 f2 f4 e2 d2  | \
w:  du   SAZ  |  *  En  gü zel   | 
c2 e4 e2 e4 d2 c2  | B2 A2 c2 d2 d2 c2 B2 A2  | 
w:  *  duy gu lar   |  *  *  ba na  düş_ ol  | 
(3c2B2A2 B4 (3B2A2B2 (3c2B2A2  | G2 d4 c2 c2 B2 B2 A2  | \
w:  du   *  *  *  SAZ  |  *  Yor gu num   | 
z2 A4 c2 B3A G4  | 
w:  dost la rım   | 
z2 B4 c2 d2 c2 B2 A2  | (3c2B2A2 B4 (3B2A2B2 (3c2B2A2  | \
w:  yor gu num_ ar  |  tık   *  *  *  SAZ  | 
G2 d2 c2 B2 B2 A6  | 
w:  Ve fâ *  *  sız   | 
z2 A4 c2 B3A G4  | z2 c2 B2 c2 (3d2c2B2 B2 A2  | \
w:  yıl la ra   |  dar *  gı nım  *  *  ar  | 
A8 G2 A2 B2 c2  | G2 d4 c2 c2 B2 B2 A2  | 
w:  tık   SAZ  |  *  Yor gu num   | 
z2 A4 c2 B3A G4  | z2 B4 c2 d2 c2 B2 A2  | \
w:  dost la rım   |  yor gu num_ ar  | 
(3c2B2A2 B4 (3B2A2B2 (3c2B2A2  | 
w:  tık   *  *  *  SAZ  | 
G2 d2 c2 B2 B2 A6  | z2 A4 c2 B3A G4  | \
w:  Ve fâ *  *  sız   |  yıl la ra   | 
z2 c2 B2 c2 (3d2c2B2 B2 A2  | 
w:  dar *  gı nım  *  *  ar  | 
A16  | z4 d2 c2 c2 B2 B2 A2  | A4 c4 B4 A4  | \
w:  tık    |   |   | 
G2 c2 B2 d2 c2 B2 B2 A2  | A8 g2 ^f^e f4  | 
w:   |   | 
z2 d4 ^f2 f8  | z2 ^f4 f2 f2 ^e2 f3e  | \
w:  Tut ma dı   |  el le rim   | 
d4 ^e2 ^f2 g2 f2 e2 g2  | ^f8 z2 d2 ^e2 f2  | 
w:  *  sı cak_ el *  *  le  |  ri   SAZ  | 
g2 g4 ^f2 e4 z4  | z2 a4 a2 a2 g2 f2 e2  | \
w:  *  Duy ma dım   |  aşk  de nen   | 
d2 g4 e2 e2 d2 f2 ed  | d8 fe dc d4  | 
w:  *  tat lı  söz *  *  le  |  ri   SAZ  | 
z4 a2 g2 a2 g2 f2 e2  | d4 g2 f2 g2 f2 e2 d2  | \
w:  Ta şı dım   |  *  gön *  lüm *  de   | 
c4 e2 f2 e2 d2 c2 B2  | 
w:  *  a cı  iz *  *  le  | 
c8 (3c2B2A2 B4  | d2 d4 c2 c2 B2 B2 A2  | \
w:  ri   SAZ  |  *  Yor gu num   | 
z2 A4 c2 B3A G4  | z2 B4 c2 d2 c2 B2 A2  | 
w:  dost la rım   |  yor gu num_ ar  | 
(3c2B2A2 B4 (3B2A2B2 (3c2B2A2  | G2 d2 c2 B2 B2 A6  | \
w:  tık   *  *  *  SAZ  |  Ve fâ *  *  sız   | 
z2 A4 c2 B3A G4  | 
w:  yıl la ra   | 
z2 c2 B2 c2 (3d2c2B2 B2 A2  | A8 G2 A2 B2 c2  | \
w:  dar *  gı nım  *  *  ar  |  tık   SAZ  | 
d2 d4 c2 c2 B2 B2 A2  | 
w:  *  Yor gu num   | 
z2 A4 c2 B3A G4  | z2 B4 c2 d2 c2 B2 A2  | \
w:  dost la rım   |  yor gu num_ ar  | 
(3c2B2A2 B4 (3B2A2B2 (3c2B2A2  | 
w:  tık   *  *  *  SAZ  | 
G2 d2 c2 B2 B2 A6  | z2 A4 c2 B3A G4  | \
w:  Ve fâ *  *  sız   |  yıl la ra   | 
z2 c2 B2 c2 (3d2c2B2 B2 A2  | 
w:  dar *  gı nım  *  *  ar  | 
A16  | z2 e2 d2 e2 f2 d4 c2  | e2 c4 B2 c4 d4  | \
w:  tık    |   |   | 
z2 d2 c2 d2 e2 c4 B2  | d2 B4 A2 B4 c4  | 
w:   |   | 
z2 c2 B2 c2 d2 B4 A2  | B2 A4 G2 A2 c2 B4  | \
w:   |   | 
z2 g2 ^f2 a2 g2 =f2 e2 d2  | 
w:   | 
c2 B2 B2 A2 A8  | z2 e2 d2 e2 f2 d4 c2  | \
w:   |   | 
e2 c4 B2 c4 d4  | z2 d2 c2 d2 e2 c4 B2  | 
w:   |   | 
d2 B4 A2 B4 c4  | z2 c2 B2 c2 d2 B4 A2  | \
w:   |   | 
B2 A4 G2 A2 c2 B4  | z2 g2 ^f2 a2 g2 =f2 e2 d2  | 
w:   |   | 
c2 B2 B2 A2 A8  | d2 d4 c2 B4 A4  | A2 A6 (3c2B2A2 B4  | \
w:   |  İ çim *  de   |  a teş ler   | 
z2 c4 B2 d2 c2 B2 A2  | 
w:  sön dü  kül_ ol  | 
A6 d2 c2 B2 A4  | c4 d4 d8  | z4 d2 d2 e8  | \
w:  du   SAZ  |  Aşk  bah çem   |  ku ru du   | 
z2 e4 f2 d2 c2 B2 A2  | d8 c2 B2 A4  | 
w:  san ki  çöl_ ol  |  du   SAZ  | 
d2 d4 c2 B4 A4  | A2 A6 (3c2B2A2 B4  | \
w:  İ çim *  de   |  a teş ler   | 
z2 c4 B2 d2 c2 B2 A2  | A6 d2 c2 B2 A4  | 
w:  sön dü  kül_ ol  |  du   SAZ  | 
c4 d4 d8  | z4 d2 d2 e8  | z2 e4 f2 d2 c2 B2 A2  | \
w:  Aşk  bah çem   |  ku ru du   |  san ki  çöl_ ol  | 
d8 G2 A2 B2 c2  | d4 f4 f4 e2 d2  | 
w:  du   SAZ  |  *  Yâr  bil dim   | 
c4 e2 e2 e4 d2 c2  | B2 A2 c2 d2 d2 c2 B2 A2  | \
w:  *  o  bi le   |  *  *  ba na  el_ ol  | 
(3c2B2A2 B4 (3B2A2B2 (3c2B2A2  | 
w:  du   *  *  *  SAZ  | 
G2 d4 c2 c2 B2 B2 A2  | z2 A4 c2 B3A G4  | \
w:  *  Yor gu num   |  dost la rım   | 
z2 B4 c2 d2 c2 B2 A2  | (3c2B2A2 B4 (3B2A2B2 (3c2B2A2  | 
w:  yor gu num_ ar  |  tık   *  *  *  SAZ  | 
G2 d2 c2 B2 B2 A6  | z2 A4 c2 B3A G4  | \
w:  Ve fâ *  *  sız   |  yıl la ra   | 
z2 c2 B2 c2 (3d2c2B2 B2 A2  | 
w:  dar *  gı nım  *  *  ar  | 
A8 G2 A2 B2 c2  | G2 d4 c2 c2 B2 B2 A2  | \
w:  tık   SAZ  |  *  Yor gu num   | 
z2 A4 c2 B3A G4  | z2 B4 c2 d2 c2 B2 A2  | 
w:  dost la rım   |  yor gu num_ ar  | 
(3c2B2A2 B4 (3B2A2B2 (3c2B2A2  | G2 d2 c2 B2 B2 A6  | \
w:  tık   *  *  *  SAZ  |  Ve fâ *  *  sız   | 
z2 A4 c2 B3A G4  | 
w:  yıl la ra   | 
z2 c2 B2 c2 (3d2c2B2 B2 A2  | A16  | \
w:  dar *  gı nım  *  *  ar  |  tık    | 
z4 d2 c2 c2 B2 B2 A2  | A4 c4 B4 A4  | 
w:   |   | 
G2 c2 B2 d2 c2 B2 B2 A2  | A8 g2 ^f^e f4  | \
w:   |   | 
z2 d4 ^f2 f8  | z2 ^f4 f2 f2 ^e2 f3e  | 
w:  Tut ma dı   |  el le rim   | 
d4 ^e2 ^f2 g2 f2 e2 g2  | ^f8 z2 d2 ^e2 f2  | \
w:  *  sı cak_ el *  *  le  |  ri   SAZ  | 
g2 g4 ^f2 e4 z4  | z2 a4 a2 a2 g2 f2 e2  | 
w:  *  Duy ma dım   |  aşk  de nen   | 
d2 g4 e2 e2 d2 f2 ed  | d8 fe dc d4  | \
w:  *  tat lı  söz *  *  le  |  ri   SAZ  | 
z4 a2 g2 a2 g2 f2 e2  | 
w:  Ta şı dım   | 
d4 g2 f2 g2 f2 e2 d2  | c4 e2 f2 e2 d2 c2 B2  | \
w:  *  gön *  lüm *  de   |  *  a cı  iz *  *  le  | 
c8 (3c2B2A2 B4  | d2 d4 c2 c2 B2 B2 A2  | 
w:  ri   SAZ  |  *  Yor gu num   | 
z2 A4 c2 B3A G4  | z2 B4 c2 d2 c2 B2 A2  | \
w:  dost la rım   |  yor gu num_ ar  | 
(3c2B2A2 B4 (3B2A2B2 (3c2B2A2  | 
w:  tık   *  *  *  SAZ  | 
G2 d2 c2 B2 B2 A6  | z2 A4 c2 B3A G4  | \
w:  Ve fâ *  *  sız   |  yıl la ra   | 
z2 c2 B2 c2 (3d2c2B2 B2 A2  | 
w:  dar *  gı nım  *  *  ar  | 
A8 G2 A2 B2 c2  | d2 d4 c2 c2 B2 B2 A2  | \
w:  tık   SAZ  |  *  Yor gu num   | 
z2 A4 c2 B3A G4  | z2 B4 c2 d2 c2 B2 A2  | 
w:  dost la rım   |  yor gu num_ ar  | 
(3c2B2A2 B4 (3B2A2B2 (3c2B2A2  | G2 d2 c2 B2 B2 A6  | \
w:  tık   *  *  *  SAZ  |  Ve fâ *  *  sız   | 
z2 A4 c2 B3A G4  | 
w:  yıl la ra   | 
z2 c2 B2 c2 (3d2c2B2 B2 A2  | A16  | |


